X:5
T:Kathleen's Favourite
R:jig
C:Dan Hughie MacEachern
D:Buddy MacMaster, Cape Breton Tradition 2003
B:MacEachern Collection Vol. 1 (1975)
N:copyrights - Margaret Dunn, Antigonish, NS
Z:Paul Stewart Cranford (P.S.C.), <http://www.cranfordpub.com>
L:1/8
Q:288
M:6/8
K:F
C|F2 G AFA|GAG FAc|Tfef cAF|AGG G2 A|
FAc Tfef|afd cAF|CDF GcB |AFF F2:|
|:c|Tfef gfg|Tafd cAF|CDF AGF|[1AGG G2 c|
Tfef gfg|Tafd cAF|CDF GcB |AFF F2:|
[2AGG G2 g|fcf afa|gdg bgb|Tafd cAG|AFF F2|]
W:Copyrights - Margaret Dunn, Antigonish, NS
